gama.ui.shared/icons_svg/dark/generic/menu.about.svg

<svg height="25" viewBox="-814.774 -3167.932 25 25" width="25" xmlns="http://www.w3.org/2000/svg"><g fill="none"><path d="m-810.4341-3167.4315h16.32c2.1208 0 3.84 1.7192 3.84 3.84v16.32c0 2.1208-1.7192 3.84-3.84 3.84h-16.32c-2.1208 0-3.84-1.7192-3.84-3.84v-16.32c0-2.1208 1.7192-3.84 3.84-3.84z" fill="#666"/><path d="m-810.4341-3167.4315h16.32c2.1208 0 3.84 1.7192 3.84 3.84v16.32c0 2.1208-1.7192 3.84-3.84 3.84h-16.32c-2.1208 0-3.84-1.7192-3.84-3.84v-16.32c0-2.1208 1.7192-3.84 3.84-3.84z" stroke="#fff" stroke-linecap="round" stroke-linejoin="round" stroke-width=".25"/><g fill="#ccc"><path d="m-798.42065-3160.8007c-2.7557-1.1999-6.08185-.6729-8.33535 1.5807-2.9417 2.9417-2.9417 7.7107 0 10.652.6999.702 1.5319 1.2582 2.448 1.637l.5234-1.2333c-.7578-.3113-1.44605-.7704-2.0246-1.3505-2.4187-2.4182-2.4187-6.3397 0-8.7582 1.8559-1.856 4.5971-2.288 6.8651-1.295z"/><path d="m-797.9386-3148.1518h1.4224v-4.6196h-4.8718v1.3489h3.4494z"/><path d="m-798.6155-3151.4936c-1.0974 1.2641-2.9093 1.6289-4.4104.8881s-2.3137-2.4009-1.9779-4.0408c.3358-1.64 1.7354-2.8471 3.4069-2.9383v-1.3404c-1.2618.0485-2.4586.5724-3.3503 1.4665-1.9603 1.9611-1.9603 5.1402 0 7.1015 1.9612 1.961 5.1407 1.961 7.1014 0 .3455-.3456.6303-.729.854-1.1366z"/><path d="m-793.0836-3159.492c-.3628-.538-.77655-1.0397-1.2356-1.4983-3.9223-3.9223-10.2805-3.9223-14.2027 0-3.1165 3.1163-3.7564 7.7713-1.9202 11.5201l1.1634-.6718c-1.5426-3.234-.9746-7.2233 1.7036-9.902 3.3992-3.3987 8.9098-3.3987 12.309 0 .3829.3833.7227.793 1.0192 1.2233z"/></g></g></svg>

<?xml version="1.0" encoding="UTF-8" standalone="no"?>
<!DOCTYPE svg PUBLIC "-//W3C//DTD SVG 1.1//EN" "http://www.w3.org/Graphics/SVG/1.1/DTD/svg11.dtd">
<svg xmlns="http://www.w3.org/2000/svg" xmlns:xl="http://www.w3.org/1999/xlink" version="1.1" xmlns:dc="http://purl.org/dc/elements/1.1/" viewBox="-814.7741 -3167.9315 25 25" width="25" height="25">
  <defs/>
  <g id="SOURCES" stroke-opacity="1" fill="none" stroke="none" fill-opacity="1" stroke-dasharray="none">
    <title>SOURCES</title>
    <g id="SOURCES_Dark">
      <title>Dark</title>
      <g id="Graphic_11337">
        <path d="M -810.4341 -3167.4315 L -794.1141 -3167.4315 C -791.9933 -3167.4315 -790.2741 -3165.7123 -790.2741 -3163.5915 L -790.2741 -3147.2715 C -790.2741 -3145.1507 -791.9933 -3143.4315 -794.1141 -3143.4315 L -810.4341 -3143.4315 C -812.5549 -3143.4315 -814.2741 -3145.1507 -814.2741 -3147.2715 L -814.2741 -3163.5915 C -814.2741 -3165.7123 -812.5549 -3167.4315 -810.4341 -3167.4315 Z" fill="#666"/>
        <path d="M -810.4341 -3167.4315 L -794.1141 -3167.4315 C -791.9933 -3167.4315 -790.2741 -3165.7123 -790.2741 -3163.5915 L -790.2741 -3147.2715 C -790.2741 -3145.1507 -791.9933 -3143.4315 -794.1141 -3143.4315 L -810.4341 -3143.4315 C -812.5549 -3143.4315 -814.2741 -3145.1507 -814.2741 -3147.2715 L -814.2741 -3163.5915 C -814.2741 -3165.7123 -812.5549 -3167.4315 -810.4341 -3167.4315 Z" stroke="white" stroke-linecap="round" stroke-linejoin="round" stroke-width=".25"/>
      </g>
      <g id="Graphic_11336">
        <path d="M -798.42065 -3160.8007 C -801.17635 -3162.0006 -804.5025 -3161.4736 -806.756 -3159.22 C -809.6977 -3156.2783 -809.6977 -3151.5093 -806.756 -3148.568 C -806.0561 -3147.866 -805.2241 -3147.3098 -804.308 -3146.931 L -803.7846 -3148.1643 C -804.5424 -3148.4756 -805.23065 -3148.9347 -805.8092 -3149.5148 C -808.2279 -3151.933 -808.2279 -3155.8545 -805.8092 -3158.273 C -803.9533 -3160.129 -801.2121 -3160.561 -798.9441 -3159.568 Z" fill="#ccc"/>
      </g>
      <g id="Graphic_11335">
        <path d="M -797.9386 -3148.1518 L -796.5162 -3148.1518 L -796.5162 -3152.7714 L -801.388 -3152.7714 L -801.388 -3151.4225 L -797.9386 -3151.4225 Z" fill="#ccc"/>
      </g>
      <g id="Graphic_11334">
        <path d="M -798.6155 -3151.4936 C -799.7129 -3150.2295 -801.5248 -3149.8647 -803.0259 -3150.6055 C -804.527 -3151.3463 -805.3396 -3153.0064 -805.0038 -3154.6463 C -804.668 -3156.2863 -803.2684 -3157.4934 -801.5969 -3157.5846 L -801.5969 -3158.925 C -802.8587 -3158.8765 -804.0555 -3158.3526 -804.9472 -3157.4585 C -806.9075 -3155.4974 -806.9075 -3152.3183 -804.9472 -3150.357 C -802.986 -3148.396 -799.8065 -3148.396 -797.8458 -3150.357 C -797.5003 -3150.7026 -797.2155 -3151.086 -796.9918 -3151.4936 Z" fill="#ccc"/>
      </g>
      <g id="Graphic_11333">
        <path d="M -793.0836 -3159.492 C -793.4464 -3160.03 -793.86015 -3160.5317 -794.3192 -3160.9903 C -798.2415 -3164.9126 -804.5997 -3164.9126 -808.5219 -3160.9903 C -811.6384 -3157.874 -812.2783 -3153.219 -810.4421 -3149.4702 L -809.2787 -3150.142 C -810.8213 -3153.376 -810.2533 -3157.3653 -807.5751 -3160.044 C -804.1759 -3163.4427 -798.6653 -3163.4427 -795.2661 -3160.044 C -794.8832 -3159.6607 -794.5434 -3159.251 -794.2469 -3158.8207 Z" fill="#ccc"/>
      </g>
    </g>
  </g>
</svg>
